static/img/kroki/d2315d3f018fafa0583afa15021270af.svg

<?xml version="1.0" encoding="us-ascii" standalone="no"?><svg xmlns="http://www.w3.org/2000/svg" xmlns:xlink="http://www.w3.org/1999/xlink" contentStyleType="text/css" height="374px" preserveAspectRatio="none" style="width:487px;height:374px;" version="1.1" viewBox="0 0 487 374" width="487px" zoomAndPan="magnify"><defs/><g><!--class azure_machine_learning_registry--><g id="elem_azure_machine_learning_registry"><rect codeLine="23" fill="#3D176E" height="39.7891" id="azure_machine_learning_registry" rx="2.5" ry="2.5" style="stroke:#000D19;stroke-width:0.5;" width="320" x="47.5" y="328.58"/><ellipse cx="62.5" cy="348.4745" fill="#ADD1B2" rx="11" ry="11" style="stroke:#181818;stroke-width:1.0;"/><path d="M65.4688,354.1152 Q64.8906,354.412 64.25,354.5527 Q63.6094,354.7089 62.9063,354.7089 Q60.4063,354.7089 59.0781,353.0683 Q57.7656,351.412 57.7656,348.287 Q57.7656,345.162 59.0781,343.5058 Q60.4063,341.8495 62.9063,341.8495 Q63.6094,341.8495 64.25,342.0058 Q64.9063,342.162 65.4688,342.4589 L65.4688,345.1777 Q64.8438,344.5995 64.25,344.3339 Q63.6563,344.0527 63.0313,344.0527 Q61.6875,344.0527 61,345.1308 Q60.3125,346.1933 60.3125,348.287 Q60.3125,350.3808 61,351.4589 Q61.6875,352.5214 63.0313,352.5214 Q63.6563,352.5214 64.25,352.2558 Q64.8438,351.9745 65.4688,351.3964 L65.4688,354.1152 Z " fill="#000000"/><text fill="#D9B8FF" font-family="Helvetica" font-size="17" lengthAdjust="spacing" textLength="278" x="81.5" y="354.3598">azure_machine_learning_registry</text></g><!--class azure_tracked_resource--><g id="elem_azure_tracked_resource"><rect codeLine="26" fill="#3D176E" height="39.7891" id="azure_tracked_resource" rx="2.5" ry="2.5" style="stroke:#000D19;stroke-width:0.5;" width="239" x="7" y="167.79"/><ellipse cx="22" cy="187.6845" fill="#ADD1B2" rx="11" ry="11" style="stroke:#181818;stroke-width:1.0;"/><path d="M24.9688,193.3252 Q24.3906,193.622 23.75,193.7627 Q23.1094,193.9189 22.4063,193.9189 Q19.9063,193.9189 18.5781,192.2783 Q17.2656,190.622 17.2656,187.497 Q17.2656,184.372 18.5781,182.7158 Q19.9063,181.0595 22.4063,181.0595 Q23.1094,181.0595 23.75,181.2158 Q24.4063,181.372 24.9688,181.6689 L24.9688,184.3877 Q24.3438,183.8095 23.75,183.5439 Q23.1563,183.2627 22.5313,183.2627 Q21.1875,183.2627 20.5,184.3408 Q19.8125,185.4033 19.8125,187.497 Q19.8125,189.5908 20.5,190.6689 Q21.1875,191.7314 22.5313,191.7314 Q23.1563,191.7314 23.75,191.4658 Q24.3438,191.1845 24.9688,190.6064 L24.9688,193.3252 Z " fill="#000000"/><text fill="#D9B8FF" font-family="Helvetica" font-size="17" lengthAdjust="spacing" textLength="197" x="41" y="193.5698">azure_tracked_resource</text></g><!--class microsoft_resource--><g id="elem_microsoft_resource"><rect codeLine="29" fill="#3D176E" height="39.7891" id="microsoft_resource" rx="2.5" ry="2.5" style="stroke:#000D19;stroke-width:0.5;" width="200" x="280.5" y="167.79"/><ellipse cx="295.5" cy="187.6845" fill="#ADD1B2" rx="11" ry="11" style="stroke:#181818;stroke-width:1.0;"/><path d="M298.4688,193.3252 Q297.8906,193.622 297.25,193.7627 Q296.6094,193.9189 295.9063,193.9189 Q293.4063,193.9189 292.0781,192.2783 Q290.7656,190.622 290.7656,187.497 Q290.7656,184.372 292.0781,182.7158 Q293.4063,181.0595 295.9063,181.0595 Q296.6094,181.0595 297.25,181.2158 Q297.9063,181.372 298.4688,181.6689 L298.4688,184.3877 Q297.8438,183.8095 297.25,183.5439 Q296.6563,183.2627 296.0313,183.2627 Q294.6875,183.2627 294,184.3408 Q293.3125,185.4033 293.3125,187.497 Q293.3125,189.5908 294,190.6689 Q294.6875,191.7314 296.0313,191.7314 Q296.6563,191.7314 297.25,191.4658 Q297.8438,191.1845 298.4688,190.6064 L298.4688,193.3252 Z " fill="#000000"/><text fill="#D9B8FF" font-family="Helvetica" font-size="17" lengthAdjust="spacing" textLength="158" x="314.5" y="193.5698">microsoft_resource</text></g><!--class resource--><g id="elem_resource"><rect codeLine="32" fill="#3D176E" height="39.7891" id="resource" rx="2.5" ry="2.5" style="stroke:#000D19;stroke-width:0.5;" width="113" x="324" y="7"/><ellipse cx="339" cy="26.8945" fill="#ADD1B2" rx="11" ry="11" style="stroke:#181818;stroke-width:1.0;"/><path d="M341.9688,32.5352 Q341.3906,32.832 340.75,32.9727 Q340.1094,33.1289 339.4063,33.1289 Q336.9063,33.1289 335.5781,31.4883 Q334.2656,29.832 334.2656,26.707 Q334.2656,23.582 335.5781,21.9258 Q336.9063,20.2695 339.4063,20.2695 Q340.1094,20.2695 340.75,20.4258 Q341.4063,20.582 341.9688,20.8789 L341.9688,23.5977 Q341.3438,23.0195 340.75,22.7539 Q340.1563,22.4727 339.5313,22.4727 Q338.1875,22.4727 337.5,23.5508 Q336.8125,24.6133 336.8125,26.707 Q336.8125,28.8008 337.5,29.8789 Q338.1875,30.9414 339.5313,30.9414 Q340.1563,30.9414 340.75,30.6758 Q341.3438,30.3945 341.9688,29.8164 L341.9688,32.5352 Z " fill="#000000"/><text fill="#D9B8FF" font-family="Helvetica" font-size="17" lengthAdjust="spacing" textLength="71" x="358" y="32.7798">resource</text></g><!--reverse link azure_tracked_resource to azure_machine_learning_registry--><g id="link_azure_tracked_resource_azure_machine_learning_registry"><path codeLine="35" d="M144.4499,223.874 C160.0199,254.394 182.1,297.69 197.69,328.25 " fill="none" id="azure_tracked_resource-backto-azure_machine_learning_registry" style="stroke:#FFAF37;stroke-width:2.0;"/><polygon fill="none" points="136.27,207.84,139.1052,226.6006,149.7945,221.1474,136.27,207.84" style="stroke:#FFAF37;stroke-width:2.0;"/></g><!--reverse link microsoft_resource to azure_machine_learning_registry--><g id="link_microsoft_resource_azure_machine_learning_registry"><path codeLine="36" d="M346.3693,220.0119 C313.1193,250.5319 261.74,297.69 228.44,328.25 " fill="none" id="microsoft_resource-backto-azure_machine_learning_registry" style="stroke:#FFAF37;stroke-width:2.0;"/><polygon fill="none" points="359.63,207.84,342.312,215.5917,350.4266,224.4321,359.63,207.84" style="stroke:#FFAF37;stroke-width:2.0;"/></g><!--reverse link resource to microsoft_resource--><g id="link_resource_microsoft_resource"><path codeLine="37" d="M380.5,65.05 C380.5,95.57 380.5,136.9 380.5,167.46 " fill="none" id="resource-backto-microsoft_resource" style="stroke:#FFAF37;stroke-width:2.0;"/><polygon fill="none" points="380.5,47.05,374.5,65.05,386.5,65.05,380.5,47.05" style="stroke:#FFAF37;stroke-width:2.0;"/></g><!--SRC=[ZP91Jm8n48Nl-okQS2O1YIuaNe34w8KOyKw6Tiesksqtqra9gF_THTIKtGMypllwtfj9CwDGe2rv9opQDL98GcvS2GHMJ8dyTkuBJwAdDUXHsXGVlEEhm08iYaSitf2DX2RncXcPEmn1t4JI36I-8LyvTRHd0XTg2Hr7rBo04ARCPDOLOrH6JTPZhPjaqxGtKiFq3bkO9uNqWmm60pMSD96hKHVt_YEMPezY61zjuHbRDLiHtzJ5bWSYAjbQz5S_s_4Pb39k8swZsSkn4pcaa_ao0-Mt1rf34UAOm4ZeULVYlBKLJiPAfvtmqpauaOVJ2TXNX2iBCZCELmK2kJfzHRWnWMadtfFaymIjlu_CKTL4y1L9Z0bh9FdWDNUgfxCpRlSV_Nx_Mgka8-X_3njusoVv0W00]--></g></svg>

<svg xmlns="http://www.w3.org/2000/svg" width="487" height="374" viewBox="0 0 487 374"><rect width="320" height="39.789" x="47.5" y="328.58" fill="#3D176E" rx="2.5" ry="2.5" style="stroke:#000d19;stroke-width:.5"/><circle cx="62.5" cy="348.474" r="11" fill="#ADD1B2" style="stroke:#181818;stroke-width:1"/><path d="M65.469 354.115q-.578.297-1.219.438-.64.156-1.344.156-2.5 0-3.828-1.64-1.312-1.657-1.312-4.782t1.312-4.781q1.328-1.656 3.828-1.656.703 0 1.344.156.656.156 1.219.453v2.719q-.625-.579-1.219-.844-.594-.281-1.219-.281-1.343 0-2.031 1.078-.687 1.062-.687 3.156t.687 3.172q.688 1.062 2.031 1.062.625 0 1.219-.265.594-.281 1.219-.86z"/><text x="81.5" y="354.36" fill="#D9B8FF" font-family="Helvetica" font-size="17" textLength="278">azure_machine_learning_registry</text><rect width="239" height="39.789" x="7" y="167.79" fill="#3D176E" rx="2.5" ry="2.5" style="stroke:#000d19;stroke-width:.5"/><circle cx="22" cy="187.685" r="11" fill="#ADD1B2" style="stroke:#181818;stroke-width:1"/><path d="M24.969 193.325q-.578.297-1.219.438-.64.156-1.344.156-2.5 0-3.828-1.64-1.312-1.657-1.312-4.782t1.312-4.781q1.328-1.656 3.828-1.656.703 0 1.344.156.656.156 1.219.453v2.719q-.625-.578-1.219-.844-.594-.281-1.219-.281-1.343 0-2.031 1.078-.687 1.062-.687 3.156t.687 3.172q.688 1.062 2.031 1.062.625 0 1.219-.265.594-.281 1.219-.86z"/><text x="41" y="193.57" fill="#D9B8FF" font-family="Helvetica" font-size="17" textLength="197">azure_tracked_resource</text><rect width="200" height="39.789" x="280.5" y="167.79" fill="#3D176E" rx="2.5" ry="2.5" style="stroke:#000d19;stroke-width:.5"/><circle cx="295.5" cy="187.685" r="11" fill="#ADD1B2" style="stroke:#181818;stroke-width:1"/><path d="M298.469 193.325q-.578.297-1.219.438-.64.156-1.344.156-2.5 0-3.828-1.64-1.312-1.657-1.312-4.782t1.312-4.781q1.328-1.656 3.828-1.656.703 0 1.344.156.656.156 1.219.453v2.719q-.625-.578-1.219-.844-.594-.281-1.219-.281-1.344 0-2.031 1.078-.687 1.062-.687 3.156t.687 3.172q.688 1.062 2.031 1.062.625 0 1.219-.265.594-.281 1.219-.86z"/><text x="314.5" y="193.57" fill="#D9B8FF" font-family="Helvetica" font-size="17" textLength="158">microsoft_resource</text><rect width="113" height="39.789" x="324" y="7" fill="#3D176E" rx="2.5" ry="2.5" style="stroke:#000d19;stroke-width:.5"/><circle cx="339" cy="26.895" r="11" fill="#ADD1B2" style="stroke:#181818;stroke-width:1"/><path d="M341.969 32.535q-.578.297-1.219.438-.64.156-1.344.156-2.5 0-3.828-1.64-1.312-1.657-1.312-4.782t1.312-4.781q1.328-1.656 3.828-1.656.703 0 1.344.156.656.156 1.219.453v2.719q-.625-.578-1.219-.844-.594-.281-1.219-.281-1.344 0-2.031 1.078-.687 1.062-.687 3.156t.687 3.172q.688 1.062 2.031 1.062.625 0 1.219-.265.594-.281 1.219-.86z"/><text x="358" y="32.78" fill="#D9B8FF" font-family="Helvetica" font-size="17" textLength="71">resource</text><path fill="none" d="M144.45 223.874c15.57 30.52 37.65 73.816 53.24 104.376m-61.42-120.41 2.835 18.76 10.69-5.453z" style="stroke:#ffaf37;stroke-width:2"/><g fill="none"><path d="M346.37 220.012c-33.25 30.52-84.63 77.678-117.93 108.238" style="stroke:#ffaf37;stroke-width:2"/><path d="m359.63 207.84-17.318 7.752 8.115 8.84z" style="stroke:#ffaf37;stroke-width:2"/></g><path fill="none" d="M380.5 65.05v102.41m0-120.41-6 18h12z" style="stroke:#ffaf37;stroke-width:2"/></svg>
